src/dsmComponents/Icons/tick-16px.svg

<svg width="16" height="12" xmlns="http://www.w3.org/2000/svg" xmlns:xlink="http://www.w3.org/1999/xlink"><defs><path d="M14.3.3L5 9.6 1.7 6.3c-.4-.4-1-.4-1.4 0-.4.4-.4 1 0 1.4l4 4c.2.2.4.3.7.3.3 0 .5-.1.7-.3l10-10c.4-.4.4-1 0-1.4-.4-.4-1-.4-1.4 0z" id="tick-16px_svg__a"/></defs><use fill="#737373" xlink:href="#tick-16px_svg__a" fill-rule="evenodd"/></svg>

<?xml version="1.0" encoding="UTF-8"?>
<svg width="16px" height="12px" viewBox="0 0 16 12" version="1.1" xmlns="http://www.w3.org/2000/svg" xmlns:xlink="http://www.w3.org/1999/xlink">
    <!-- Generator: Sketch 59.1 (86144) - https://sketch.com -->
    <title>tick-16px</title>
    <desc>Created with Sketch.</desc>
    <defs>
        <path d="M14.3,0.3 L5,9.6 L1.7,6.3 C1.3,5.9 0.7,5.9 0.3,6.3 C-0.1,6.7 -0.1,7.3 0.3,7.7 L4.3,11.7 C4.5,11.9 4.7,12 5,12 C5.3,12 5.5,11.9 5.7,11.7 L15.7,1.7 C16.1,1.3 16.1,0.7 15.7,0.3 C15.3,-0.1 14.7,-0.1 14.3,0.3 Z" id="path-1"></path>
    </defs>
    <g id="Final" stroke="none" stroke-width="1" fill="none" fill-rule="evenodd">
        <g id="All-Nucleo-Icons" transform="translate(-319.000000, -6555.000000)">
            <g id="Solo/Nucleo/16px/tick" transform="translate(315.000000, 6549.000000)">
                <g id="check" transform="translate(4.000000, 6.000000)">
                    <g id="Colour/Default-Colour">
                        <mask id="mask-2" fill="white">
                            <use xlink:href="#path-1"></use>
                        </mask>
                        <g id="Mask" fill-rule="nonzero"></g>
                        <g id="colour/neutral/chia" mask="url(#mask-2)" fill="#737373">
                            <g transform="translate(-24.000000, -27.000000)" id="Colour">
                                <rect x="0" y="0" width="64" height="64"></rect>
                            </g>
                        </g>
                    </g>
                </g>
            </g>
        </g>
    </g>
</svg>
